assets/icons/qvision/local_taxi.svg

<svg xmlns="http://www.w3.org/2000/svg" height="24" viewBox="0 0 24 24" width="24"><path d="M0 0h24v24H0z" fill="none"/><path d="M18.92 6.01C18.72 5.42 18.16 5 17.5 5H15V3H9v2H6.5c-.66 0-1.21.42-1.42 1.01L3 12v8c0 .55.45 1 1 1h1c.55 0 1-.45 1-1v-1h12v1c0 .55.45 1 1 1h1c.55 0 1-.45 1-1v-8l-2.08-5.99zM6.5 16c-.83 0-1.5-.67-1.5-1.5S5.67 13 6.5 13s1.5.67 1.5 1.5S7.33 16 6.5 16zm11 0c-.83 0-1.5-.67-1.5-1.5s.67-1.5 1.5-1.5 1.5.67 1.5 1.5-.67 1.5-1.5 1.5zM5 11l1.5-4.5h11L19 11H5z"/></svg>

<svg width="24" height="24" viewBox="0 0 24 24" fill="none" xmlns="http://www.w3.org/2000/svg">
<g clip-path="url(#clip0_147_5461)">
<path d="M18.92 6.01C18.72 5.42 18.16 5 17.5 5H15V3H9V5H6.5C5.84 5 5.29 5.42 5.08 6.01L3 12V20C3 20.55 3.45 21 4 21H5C5.55 21 6 20.55 6 20V19H18V20C18 20.55 18.45 21 19 21H20C20.55 21 21 20.55 21 20V12L18.92 6.01ZM6.5 16C5.67 16 5 15.33 5 14.5C5 13.67 5.67 13 6.5 13C7.33 13 8 13.67 8 14.5C8 15.33 7.33 16 6.5 16ZM17.5 16C16.67 16 16 15.33 16 14.5C16 13.67 16.67 13 17.5 13C18.33 13 19 13.67 19 14.5C19 15.33 18.33 16 17.5 16ZM5 11L6.5 6.5H17.5L19 11H5Z" fill="#323232"/>
</g>
<defs>
<clipPath id="clip0_147_5461">
<rect width="24" height="24" fill="white"/>
</clipPath>
</defs>
</svg>
